X: 33863
T: Reculver, The
R: polka
M: 2/4
K: Bminor
|:fg/f/ ec|BA B2|fg/f/ ec|ea b2|
fg/f/ ec|BA B2|fg/f/ ec|1 B2 B2:|2 B2 B>c||
|:dB bB|dB bB|dB af|ec AB/c/|
dB bB|dB bB|df ec|1 B2 B>c:|2 B2 B2||

